korla/status/symbolic/printer-printing-symbolic.svg

<svg style="clip-rule:evenodd;fill-rule:evenodd;stroke-linejoin:round;stroke-miterlimit:2" version="1.1" viewBox="0 0 16 16" xmlns="http://www.w3.org/2000/svg">
 <rect x="4" y="9" width="8" height="5" style="fill-opacity:.5;fill:rgb(223,223,223)"/>
 <path d="m12.893 8h-9.893v2h-1c-0.5 0-1-0.5-1-1v-4c0-0.5 0.5-1 1-1h12c0.5 0 1 0.5 1 1v4c0 0.5-0.5 1-1 1h-1.107v-2z" style="fill-opacity:.5;fill:rgb(223,223,223)"/>
 <rect x="4" y="1" width="8" height="2" style="fill-opacity:.5;fill:rgb(223,223,223)"/>
 <path d="m5 8c0 1.097-0.903 2-2 2s-2-0.903-2-2 0.903-2 2-2 2 0.903 2 2z" style="fill-rule:nonzero;fill:rgb(223,223,223)"/>
 <path d="m10 8c0 1.097-0.903 2-2 2s-2-0.903-2-2 0.903-2 2-2 2 0.903 2 2z" style="fill-rule:nonzero;fill:rgb(223,223,223)"/>
 <path d="m15 8c0 1.097-0.903 2-2 2s-2-0.903-2-2 0.903-2 2-2 2 0.903 2 2z" style="fill-rule:nonzero;fill:rgb(223,223,223)"/>
</svg>

<svg xmlns="http://www.w3.org/2000/svg" width="16" height="16" version="1.1">
 <path style="opacity:0.3;fill:#dfdfdf" d="M 4,1 V 3 H 12 V 1 Z M 2,4 C 1.5,4 1,4.5 1,5 V 5 H 15 V 5 C 15,4.5 14.5,4 14,4 Z M 4,11 V 14 H 12 V 11 Z"/>
 <path style="fill:#dfdfdf" d="M 5,8 A 2,2 0 0 1 3,10 2,2 0 0 1 1,8 2,2 0 0 1 3,6 2,2 0 0 1 5,8 Z"/>
 <path style="fill:#dfdfdf" d="M 10,8 A 2,2 0 0 1 8,10 2,2 0 0 1 6,8 2,2 0 0 1 8,6 2,2 0 0 1 10,8 Z"/>
 <path style="fill:#dfdfdf" d="M 15,8 A 2,2 0 0 1 13,10 2,2 0 0 1 11,8 2,2 0 0 1 13,6 2,2 0 0 1 15,8 Z"/>
</svg>
